X: 921
M: C
L: 1/8
K: G
V: 1
d |\
|: (g/a/ |\
b)>ga>e gdeg | dG(TBA) G2 G(g/a/ |\
b)>ga>e g>aba | g>eg>B A2 A(g/a/ |
b)>ga>e g>deg | dGTBA G2Gd |\
V: 2 clef=bass middle=d
z |\
g2g2 g2g2 | g2g2 g2g2 |\
g2g2 a2a2 | e2e2 A2A :|\
|: z |\
g2g2 g2g2 |
g2g2 g2g2 |\
g2g2 g2g2 | e2e2 A2A2 |\
g2g2 g2g2 | g2g2 g2g2 |\
g2g2 g2g2 | e2e2 A2A |]

